images/logo_slack.svg

<svg width="103" height="49" fill="none" xmlns="http://www.w3.org/2000/svg"><g clip-path="url(#a)"><path fill-rule="evenodd" clip-rule="evenodd" d="M17.0153 13.7154c0-1.7438 1.3421-3.1475 3.0092-3.1475 1.667 0 3.0091 1.4037 3.0091 3.1475v7.7476c0 1.7438-1.3421 3.1476-3.0091 3.1476-1.6671 0-3.0092-1.4038-3.0092-3.1476v-7.7476Zm39.5572 20.7401-2.7547-.005-.0011.0001c-.2899-.0101-.4364-.1443-.4684-.4203-.032-.2761-.1316-14.859.0165-21.1843.0005-.1122.0808-.2089.1926-.232.6063-.1543 2.4981-.1757 3.1619-.0878.1468.0187.2399.0978.2488.3111.1046 2.4527.1762 17.9938.0103 21.2581-.0022.0502-.0145.0994-.0362.1448-.0217.0453-.0522.0858-.0899.1191-.0769.0678-.1775.1024-.2798.0962ZM45.2472 18.9177c-3.855 0-5.974 1.9949-5.974 4.8528l.0235-.0023c0 2.9645 2.4125 3.9354 5.4122 4.4911 1.8664.3487 3.0472.8293 3.0636 1.6537.0193.9359-.8819 1.4903-2.3717 1.5254l-.3866-.0024c-1.6672-.0553-3.0917-.9096-3.9649-1.4428-.249-.1531-.7302-.1144-.9128.1304-.3282.3765-.7442 1.0939-.992 1.7188-.2156.4842.1878.8882.2235.9183 1.0594.8995 3.0352 1.823 5.8207 1.8781 4.2124.0739 6.3824-2.3361 6.3824-5.002 0-3.1388-2.3461-4.0334-5.4506-4.5563-1.6685-.2802-3.0446-.6314-3.0192-1.6049.0031-.1457.0347-.2922.0933-.4391.2911-.7388 1.1131-1.0751 2.0986-1.0965.2909-.0062.5781.0087.8526.0376 1.0615.1111 2.2268.6927 2.9754 1.0664l.0882.044c.2042.1029.6037.1394.7607-.1455l.849-1.7451c.129-.2977.0213-.6435-.2554-.8193-1.0428-.7227-2.9678-1.4604-5.3165-1.4604Zm17.1847 11.1394c.0562-1.6248 1.9952-2.193 4.1103-2.2206l-.0003.0013c.5667.0225.8999.0803 1.3493.2658.0907.0367.2961.232.2986.3326.0103.4804-.0152 1.6031-.194 1.9043-.4813.8094-1.574 1.4203-3.0061 1.5557-1.4946.0827-2.5578-.5508-2.5578-1.8391Zm3.1489-10.9157c-3.1404-.0715-5.087 1.2821-6.0763 2.1515l-.0048-.0248c-.1277.1129-.2274.2924-.1571.5081s.9842 1.5635 1.3467 2.0249c.0742.094.3025.1554.4494.0715.0651-.0374.1398-.0813.2228-.1302h.0001c.7112-.4182 2.0317-1.1947 3.1496-1.2811.3248-.0231.651-.0146.974.0251 1.5701.1918 2.3167.9007 2.5083 1.7814.0764.3463.0943 1.0752.0893 1.4577-.0025.1156-.1724.1631-.2553.1306-1.2996-.5081-3.0176-.7063-4.5418-.4831-2.3794.3489-4.5455 1.8304-4.5532 4.8325-.0076 2.932 2.5452 4.4123 5.106 4.4123 1.6851 0 3.2703-.5019 4.2379-1.5056.0385-.0251.1877-.0301.1915.1254l.0217.7753c.0051.1868.0473.3636.411.3812l2.9693-.0063c.0445.0078.0902.0049.1334-.0084.0431-.0134.0825-.0369.1147-.0686.0648-.064.0937-.1552.0773-.2442.0355-1.3023.1732-6.531.0902-8.4054-.2028-4.5351-2.3817-6.4358-6.5047-6.5198Zm15.6049-.0266c-4.8214.0326-7.7904 3.5653-7.7649 7.7531l-.0114-.0151c.0243 4.2027 2.6206 7.8207 7.8541 7.7832 2.4995-.0138 4.3886-1.0363 5.3665-2.253.0856-.1055.2616-.369.0254-.6376-.3612-.4727-1.0109-1.1754-1.464-1.6307-.2311-.1782-.4406-.2633-.6422-.0903-.6318.5708-1.829 1.2682-3.0636 1.2382-2.3741-.054-4.0158-1.5682-4.0336-4.3282-.0204-2.8744 1.708-4.4375 4.0261-4.4375 1.2777 0 2.577.5472 3.2601.995.0342.0225.0679.0459.1009.0689.2034.1418.3847.2681.5526.0567.5122-.6689.9658-1.3808 1.3556-2.1278.0549-.1493.0933-.2735.0168-.4216-.3856-.6323-2.571-1.972-5.5784-1.9533Zm20.8773 14.781c-.806.1805-3.4276.537-3.6727.5547l-.0089.0219c-.1224.0038-.2835-.0038-.4213-.197l-1.8292-2.5979c-.3778-.5503-.7671-1.1255-1.1253-1.6548l-.0002-.0004c-.5855-.8654-1.0879-1.6079-1.3216-1.9177-.0765-.1027-.1965-.1078-.2731-.0351l-1.3301 1.3702c-.064.0527-.1023.2508-.1023.2508l-.0562 4.4664s-.0461.2595-.4212.2595c-.7635.0139-2.3959.0163-3.0559-.0212-.1653-.0118-.2939-.1459-.2962-.3087-.0919-2.3285-.3089-18.97-.1558-21.2369.0388-.1862.189-.3302.3791-.3638l3.0062.0064c.1291.006.3588.1477.3638.336l.1237 12.0498c.0012.2696.1109.3112.3025.1231l5.7568-5.6143c.2631-.2508.6078-.2722.8937-.2132.6781.1418 1.8702.4116 2.6082.6273.38.1118.651.3187.201.7954l-4.9856 4.913c-.102.1003-.1073.2256-.0128.3512l2.7253 3.4337 2.8681 4.2278c.11.1643.039.3286-.16.3738ZM8.99109 29.7652c0-1.7438 1.34211-3.1475 3.00911-3.1475 1.6671 0 3.0092 1.4037 3.0092 3.1475v7.7476c0 1.7437-1.3421 3.1476-3.0092 3.1476-1.667 0-3.00911-1.4039-3.00911-3.1476v-7.7476Zm8.02421-.1384c0 1.6671 1.4038 3.0092 3.1475 3.0092h7.7478c1.7438 0 3.1475-1.3421 3.1475-3.0092 0-1.667-1.4038-3.0091-3.1475-3.0091h-7.7478c-1.7438 0-3.1475 1.3421-3.1475 3.0091ZM.966797 21.6022c0 1.667 1.403763 3.0091 3.147563 3.0091h7.74754c1.7438 0 3.1476-1.3421 3.1476-3.0091 0-1.6671-1.4038-3.0092-3.1476-3.0092H4.11436c-1.7438 0-3.147563 1.3421-3.147563 3.0092ZM17.0153 37.6508c0 1.667 1.3421 3.0091 3.0092 3.0091 1.667 0 3.0091-1.3421 3.0091-3.0091 0-1.6671-1.3421-3.0092-3.0091-3.0092h-3.0092v3.0092Zm8.0246-13.0395h3.0092c1.667 0 3.0091-1.3421 3.0091-3.0091 0-1.6671-1.3421-3.0092-3.0091-3.0092-1.6671 0-3.0092 1.3421-3.0092 3.0092v3.0091ZM3.97594 26.6177h3.00915v3.0091c0 1.6671-1.34208 3.0092-3.00915 3.0092-1.66706 0-3.009143-1.3421-3.009143-3.0092 0-1.667 1.342083-3.0091 3.009143-3.0091ZM15.0094 16.5862V13.577c0-1.667-1.3421-3.0091-3.0092-3.0091-1.667 0-3.00911 1.3421-3.00911 3.0091 0 1.6671 1.34211 3.0092 3.00911 3.0092h3.0092Z" fill="#fff"/></g><defs><clipPath id="a"><path fill="#fff" transform="translate(.464844)" d="M0 0h102.311v48.1464H0z"/></clipPath></defs></svg>

<svg width="103" height="49" viewBox="0 0 103 49" fill="none" xmlns="http://www.w3.org/2000/svg">
<g clip-path="url(#clip0_1_564)">
<path fill-rule="evenodd" clip-rule="evenodd" d="M17.0153 13.7154C17.0153 11.9716 18.3574 10.5679 20.0245 10.5679C21.6915 10.5679 23.0336 11.9716 23.0336 13.7154V21.463C23.0336 23.2068 21.6915 24.6106 20.0245 24.6106C18.3574 24.6106 17.0153 23.2068 17.0153 21.463V13.7154ZM56.5725 34.4555L53.8178 34.4505L53.8167 34.4506C53.5268 34.4405 53.3803 34.3063 53.3483 34.0303C53.3163 33.7542 53.2167 19.1713 53.3648 12.846C53.3653 12.7338 53.4456 12.6371 53.5574 12.614C54.1637 12.4597 56.0555 12.4383 56.7193 12.5262C56.8661 12.5449 56.9592 12.624 56.9681 12.8373C57.0727 15.29 57.1443 30.8311 56.9784 34.0954C56.9762 34.1456 56.9639 34.1948 56.9422 34.2402C56.9205 34.2855 56.89 34.326 56.8523 34.3593C56.7754 34.4271 56.6748 34.4617 56.5725 34.4555ZM45.2472 18.9177C41.3922 18.9177 39.2732 20.9126 39.2732 23.7705L39.2967 23.7682C39.2967 26.7327 41.7092 27.7036 44.7089 28.2593C46.5753 28.608 47.7561 29.0886 47.7725 29.913C47.7918 30.8489 46.8906 31.4033 45.4008 31.4384L45.0142 31.436C43.347 31.3807 41.9225 30.5264 41.0493 29.9932C40.8003 29.8401 40.3191 29.8788 40.1365 30.1236C39.8083 30.5001 39.3923 31.2175 39.1445 31.8424C38.9289 32.3266 39.3323 32.7306 39.368 32.7607C40.4274 33.6602 42.4032 34.5837 45.1887 34.6388C49.4011 34.7127 51.5711 32.3027 51.5711 29.6368C51.5711 26.498 49.225 25.6034 46.1205 25.0805C44.452 24.8003 43.0759 24.4491 43.1013 23.4756C43.1044 23.3299 43.136 23.1834 43.1946 23.0365C43.4857 22.2977 44.3077 21.9614 45.2932 21.94C45.5841 21.9338 45.8713 21.9487 46.1458 21.9776C47.2073 22.0887 48.3726 22.6703 49.1212 23.044L49.2094 23.088C49.4136 23.1909 49.8131 23.2274 49.9701 22.9425L50.8191 21.1974C50.9481 20.8997 50.8404 20.5539 50.5637 20.3781C49.5209 19.6554 47.5959 18.9177 45.2472 18.9177ZM62.4319 30.0571C62.4881 28.4323 64.4271 27.8641 66.5422 27.8365L66.5419 27.8378C67.1086 27.8603 67.4418 27.9181 67.8912 28.1036C67.9819 28.1403 68.1873 28.3356 68.1898 28.4362C68.2001 28.9166 68.1746 30.0393 67.9958 30.3405C67.5145 31.1499 66.4218 31.7608 64.9897 31.8962C63.4951 31.9789 62.4319 31.3454 62.4319 30.0571ZM65.5808 19.1414C62.4404 19.0699 60.4938 20.4235 59.5045 21.2929L59.4997 21.2681C59.372 21.381 59.2723 21.5605 59.3426 21.7762C59.4129 21.9919 60.3268 23.3397 60.6893 23.8011C60.7635 23.8951 60.9918 23.9565 61.1387 23.8726C61.2038 23.8352 61.2785 23.7913 61.3615 23.7424L61.3616 23.7424C62.0728 23.3242 63.3933 22.5477 64.5112 22.4613C64.836 22.4382 65.1622 22.4467 65.4852 22.4864C67.0553 22.6782 67.8019 23.3871 67.9935 24.2678C68.0699 24.6141 68.0878 25.343 68.0828 25.7255C68.0803 25.8411 67.9104 25.8886 67.8275 25.8561C66.5279 25.348 64.8099 25.1498 63.2857 25.373C60.9063 25.7219 58.7402 27.2034 58.7325 30.2055C58.7249 33.1375 61.2777 34.6178 63.8385 34.6178C65.5236 34.6178 67.1088 34.1159 68.0764 33.1122C68.1149 33.0871 68.2641 33.0821 68.2679 33.2376L68.2896 34.0129C68.2947 34.1997 68.3369 34.3765 68.7006 34.3941L71.6699 34.3878C71.7144 34.3956 71.7601 34.3927 71.8033 34.3794C71.8464 34.366 71.8858 34.3425 71.918 34.3108C71.9828 34.2468 72.0117 34.1556 71.9953 34.0666C72.0308 32.7643 72.1685 27.5356 72.0855 25.6612C71.8827 21.1261 69.7038 19.2254 65.5808 19.1414ZM81.1857 19.1148C76.3643 19.1474 73.3953 22.6801 73.4208 26.8679L73.4094 26.8528C73.4337 31.0555 76.03 34.6735 81.2635 34.636C83.763 34.6222 85.6521 33.5997 86.63 32.383C86.7156 32.2775 86.8916 32.014 86.6554 31.7454C86.2942 31.2727 85.6445 30.57 85.1914 30.1147C84.9603 29.9365 84.7508 29.8514 84.5492 30.0244C83.9174 30.5952 82.7202 31.2926 81.4856 31.2626C79.1115 31.2086 77.4698 29.6944 77.452 26.9344C77.4316 24.06 79.16 22.4969 81.4781 22.4969C82.7558 22.4969 84.0551 23.0441 84.7382 23.4919C84.7724 23.5144 84.8061 23.5378 84.8391 23.5608C85.0425 23.7026 85.2238 23.8289 85.3917 23.6175C85.9039 22.9486 86.3575 22.2367 86.7473 21.4897C86.8022 21.3404 86.8406 21.2162 86.7641 21.0681C86.3785 20.4358 84.1931 19.0961 81.1857 19.1148ZM102.063 33.8958C101.257 34.0763 98.6354 34.4328 98.3903 34.4505L98.3814 34.4724C98.259 34.4762 98.0979 34.4686 97.9601 34.2754L96.1309 31.6775C95.7531 31.1272 95.3638 30.552 95.0056 30.0227L95.0054 30.0223C94.4199 29.1569 93.9175 28.4144 93.6838 28.1046C93.6073 28.0019 93.4873 27.9968 93.4107 28.0695L92.0806 29.4397C92.0166 29.4924 91.9783 29.6905 91.9783 29.6905L91.9221 34.1569C91.9221 34.1569 91.876 34.4164 91.5009 34.4164C90.7374 34.4303 89.105 34.4327 88.445 34.3952C88.2797 34.3834 88.1511 34.2493 88.1488 34.0865C88.0569 31.758 87.8399 15.1165 87.993 12.8496C88.0318 12.6634 88.182 12.5194 88.3721 12.4858L91.3783 12.4922C91.5074 12.4982 91.7371 12.6399 91.7421 12.8282L91.8658 24.878C91.867 25.1476 91.9767 25.1892 92.1683 25.0011L97.9251 19.3868C98.1882 19.136 98.5329 19.1146 98.8188 19.1736C99.4969 19.3154 100.689 19.5852 101.427 19.8009C101.807 19.9127 102.078 20.1196 101.628 20.5963L96.6424 25.5093C96.5404 25.6096 96.5351 25.7349 96.6296 25.8605L99.3549 29.2942L102.223 33.522C102.333 33.6863 102.262 33.8506 102.063 33.8958ZM8.99109 29.7652C8.99109 28.0214 10.3332 26.6177 12.0002 26.6177C13.6673 26.6177 15.0094 28.0214 15.0094 29.7652V37.5128C15.0094 39.2565 13.6673 40.6604 12.0002 40.6604C10.3332 40.6604 8.99109 39.2565 8.99109 37.5128V29.7652ZM17.0153 29.6268C17.0153 31.2939 18.4191 32.636 20.1628 32.636H27.9106C29.6544 32.636 31.0581 31.2939 31.0581 29.6268C31.0581 27.9598 29.6543 26.6177 27.9106 26.6177H20.1628C18.419 26.6177 17.0153 27.9598 17.0153 29.6268ZM0.966797 21.6022C0.966797 23.2692 2.37056 24.6113 4.11436 24.6113H11.8619C13.6057 24.6113 15.0095 23.2692 15.0095 21.6022C15.0095 19.9351 13.6057 18.593 11.8619 18.593H4.11436C2.37056 18.593 0.966797 19.9351 0.966797 21.6022ZM17.0153 37.6508C17.0153 39.3178 18.3574 40.6599 20.0245 40.6599C21.6915 40.6599 23.0336 39.3178 23.0336 37.6508C23.0336 35.9837 21.6915 34.6416 20.0245 34.6416H17.0153V37.6508ZM25.0399 24.6113H28.0491C29.7161 24.6113 31.0582 23.2692 31.0582 21.6022C31.0582 19.9351 29.7161 18.593 28.0491 18.593C26.382 18.593 25.0399 19.9351 25.0399 21.6022V24.6113ZM3.97594 26.6177H6.98509V29.6268C6.98509 31.2939 5.64301 32.636 3.97594 32.636C2.30888 32.636 0.966797 31.2939 0.966797 29.6268C0.966797 27.9598 2.30888 26.6177 3.97594 26.6177ZM15.0094 16.5862V13.577C15.0094 11.91 13.6673 10.5679 12.0002 10.5679C10.3332 10.5679 8.99109 11.91 8.99109 13.577C8.99109 15.2441 10.3332 16.5862 12.0002 16.5862H15.0094Z" fill="white"/>
</g>
<defs>
<clipPath id="clip0_1_564">
<rect width="102.311" height="48.1464" fill="white" transform="translate(0.464844)"/>
</clipPath>
</defs>
</svg>
